src/icons/newrelic.svg

<?xml version="1.0" encoding="UTF-8"?>
<svg xmlns="http://www.w3.org/2000/svg" xmlns:xlink="http://www.w3.org/1999/xlink" width="40.615385" height="32" viewBox="0 0 40.615385 32" version="1.1">
<g id="surface1">
<path style=" stroke:none;fill-rule:nonzero;fill:rgb(0%,54.901963%,60.000002%);fill-opacity:1;" d="M 39.09375 11.730469 C 37.246094 3.238281 27.0625 -1.757812 16.347656 0.570312 C 5.628906 2.898438 -1.558594 11.675781 0.289062 20.164062 C 2.136719 28.652344 12.320312 33.652344 23.035156 31.320312 C 33.75 28.992188 40.941406 20.226562 39.097656 11.726562 Z M 19.691406 23.773438 C 15.371094 23.773438 11.867188 20.269531 11.867188 15.945312 C 11.867188 11.625 15.371094 8.121094 19.691406 8.121094 C 24.015625 8.121094 27.519531 11.625 27.519531 15.945312 C 27.519531 20.269531 24.015625 23.773438 19.691406 23.773438 Z M 19.691406 23.773438 "/>
<path style=" stroke:none;fill-rule:nonzero;fill:rgb(43.921569%,80.000001%,82.745099%);fill-opacity:1;" d="M 21.421875 4.988281 C 15.214844 4.988281 10.1875 10.023438 10.1875 16.230469 C 10.1875 22.4375 15.21875 27.464844 21.425781 27.464844 C 27.632812 27.464844 32.664062 22.433594 32.664062 16.226562 C 32.664062 13.246094 31.480469 10.386719 29.371094 8.28125 C 27.261719 6.175781 24.402344 4.992188 21.421875 4.988281 Z M 19.691406 22.777344 C 15.914062 22.777344 12.855469 19.71875 12.855469 15.941406 C 12.855469 12.164062 15.914062 9.105469 19.691406 9.105469 C 23.464844 9.105469 26.527344 12.164062 26.527344 15.941406 C 26.527344 19.71875 23.46875 22.777344 19.691406 22.773438 Z M 19.691406 22.777344 "/>
</g>
</svg>

<svg role="img" viewBox="0 0 40.615 32" xmlns="http://www.w3.org/2000/svg"><path d="M39.094 11.73C37.246 3.238 27.062-1.758 16.348.57 5.628 2.898-1.56 11.676.289 20.164 2.137 28.652 12.32 33.652 23.035 31.32c10.715-2.328 17.906-11.093 16.063-19.593ZM19.69 23.773a7.826 7.826 0 1 1 .004-15.652 7.826 7.826 0 0 1-.004 15.652m0 0" style="stroke:none;fill-rule:nonzero;fill:rgb(0%,54.901963%,60.000002%);fill-opacity:1"/><path d="M21.422 4.988c-6.207 0-11.234 5.035-11.234 11.242 0 6.208 5.03 11.235 11.238 11.235 6.207 0 11.238-5.031 11.238-11.238 0-2.98-1.184-5.84-3.293-7.946a11.274 11.274 0 0 0-7.95-3.293m-1.73 17.79a6.833 6.833 0 0 1-6.837-6.837 6.836 6.836 0 1 1 13.672 0 6.828 6.828 0 0 1-6.836 6.832Zm0 0" style="stroke:none;fill-rule:nonzero;fill:rgb(43.921569%,80.000001%,82.745099%);fill-opacity:1"/></svg>
